tn/bulb-off-outline.svg

<svg viewBox="0 0 15 15" fill="none" xmlns="http://www.w3.org/2000/svg" height="1em" width="1em">
  <path d="M4.07572 6.46985L3.58075 6.39913V6.39913L4.07572 6.46985ZM4.06567 6.5402L4.56064 6.61091L4.56064 6.61091L4.06567 6.5402ZM10.9242 6.46985L10.4293 6.54056V6.54056L10.9242 6.46985ZM10.9343 6.54021L11.4293 6.46949V6.46949L10.9343 6.54021ZM9.5 12.5V13C9.77614 13 10 12.7761 10 12.5H9.5ZM5.5 12.5H5C5 12.7761 5.22386 13 5.5 13V12.5ZM4.75549 9.15291L5.15088 8.84687L4.75549 9.15291ZM10.2445 9.15289L9.8491 8.84686L10.2445 9.15289ZM6 15H9V14H6V15ZM3.58075 6.39913L3.5707 6.46949L4.56064 6.61091L4.5707 6.54056L3.58075 6.39913ZM7.49998 3C5.52977 3 3.85938 4.44872 3.58075 6.39913L4.5707 6.54056C4.77895 5.08279 6.02742 4 7.49998 4V3ZM11.4192 6.39914C11.1406 4.44873 9.4702 3 7.49998 3V4C8.97255 4 10.221 5.0828 10.4293 6.54056L11.4192 6.39914ZM11.4293 6.46949L11.4192 6.39914L10.4293 6.54056L10.4393 6.61092L11.4293 6.46949ZM10.6399 9.45893C11.2696 8.64541 11.5885 7.58397 11.4293 6.46949L10.4393 6.61092C10.5585 7.44543 10.3209 8.23729 9.8491 8.84686L10.6399 9.45893ZM9 10.9013V12.5H10V10.9013H9ZM9.5 12H5.5V13H9.5V12ZM6 12.5V10.9013H5V12.5H6ZM3.5707 6.46949C3.41148 7.58398 3.73042 8.64543 4.36009 9.45895L5.15088 8.84687C4.67907 8.2373 4.44143 7.44544 4.56064 6.61091L3.5707 6.46949ZM6 10.9013C6 10.0775 5.56209 9.37814 5.15088 8.84687L4.36009 9.45895C4.74345 9.95426 5 10.427 5 10.9013H6ZM9.8491 8.84686C9.4379 9.37813 9 10.0775 9 10.9013H10C10 10.427 10.2565 9.95423 10.6399 9.45893L9.8491 8.84686Z" fill="black"/>
</svg>

<svg viewBox="0 0 15 15" fill="none" xmlns="http://www.w3.org/2000/svg" height="1em" width="1em">
  <path d="M4.076 6.47 3.58 6.4l.495.07Zm-.01.07.495.07-.495-.07Zm6.858-.07-.495.07.495-.07Zm.01.07.495-.07-.495.07ZM9.5 12.5v.5a.5.5 0 0 0 .5-.5h-.5Zm-4 0H5a.5.5 0 0 0 .5.5v-.5Zm-.745-3.347.396-.306-.396.306Zm5.49 0-.396-.306.396.306ZM6 15h3v-1H6v1ZM3.58 6.4l-.01.07.99.14.01-.07-.99-.14ZM7.5 3a3.959 3.959 0 0 0-3.92 3.4l.99.14A2.959 2.959 0 0 1 7.5 4V3Zm3.92 3.4A3.959 3.959 0 0 0 7.5 3v1a2.96 2.96 0 0 1 2.93 2.54l.99-.14Zm.01.07-.01-.07-.99.14.01.07.99-.14Zm-.79 2.989c.63-.814.948-1.875.79-2.99l-.99.142a2.951 2.951 0 0 1-.59 2.236l.79.612ZM9 10.9v1.6h1v-1.599H9Zm.5 1.1h-4v1h4v-1Zm-3.5.5v-1.599H5V12.5h1ZM3.57 6.47a3.951 3.951 0 0 0 .79 2.989l.79-.612a2.951 2.951 0 0 1-.59-2.236l-.99-.142ZM6 10.9c0-.823-.438-1.523-.85-2.054l-.79.612c.383.495.64.968.64 1.442h1Zm3.85-2.054C9.437 9.378 9 10.077 9 10.9h1c0-.474.257-.947.64-1.442l-.79-.612Z" fill="#000"/>
</svg>
